icons/1_Primary/DeleteMe.svg

<svg width="1024" height="1024" viewBox="0 0 1024 1024" fill="none" xmlns="http://www.w3.org/2000/svg">
<g clip-path="url(#clip0_2_1971)">
<path d="M512 1024C794.77 1024 1024 794.77 1024 512C1024 229.23 794.77 0 512 0C229.23 0 0 229.23 0 512C0 794.77 229.23 1024 512 1024Z" fill="#54688C"/>
<path d="M512.76 258.27C459.153 258.174 406.895 275.069 363.49 306.53L511.36 454.06L662 305.15C618.176 274.714 566.116 258.361 512.76 258.27ZM512.76 765.73C459.153 765.827 406.894 748.931 363.49 717.47L511.36 569.94L662 718.85C618.176 749.285 566.116 765.639 512.76 765.73ZM304.83 364.45C273.083 407.089 255.956 458.841 256 512C256 567.15 274.14 618.17 303.43 659.53L452.7 512L304.83 364.45ZM768 512C768.039 458.847 750.913 407.103 719.17 364.47L571.3 512L720.57 659.52C749.86 618.15 768 567.14 768 512Z" fill="white"/>
</g>
<defs>
<clipPath id="clip0_2_1971">
<rect width="1024" height="1024" fill="white"/>
</clipPath>
</defs>
</svg>

<svg width="1024" height="1024" fill="none" xmlns="http://www.w3.org/2000/svg"><g clip-path="url(#a)"><path d="M512 1024c282.77 0 512-229.23 512-512S794.77 0 512 0 0 229.23 0 512s229.23 512 512 512Z" fill="#54688C"/><path d="M512.76 258.27a253.572 253.572 0 0 0-149.27 48.26l147.87 147.53L662 305.15a262.41 262.41 0 0 0-149.24-46.88Zm0 507.46a253.563 253.563 0 0 1-149.27-48.26l147.87-147.53L662 718.85a262.418 262.418 0 0 1-149.24 46.88ZM304.83 364.45A246.728 246.728 0 0 0 256 512c0 55.15 18.14 106.17 47.43 147.53L452.7 512 304.83 364.45ZM768 512a246.73 246.73 0 0 0-48.83-147.53L571.3 512l149.27 147.52C749.86 618.15 768 567.14 768 512Z" fill="#fff"/></g><defs><clipPath id="a"><path fill="#fff" d="M0 0h1024v1024H0z"/></clipPath></defs></svg>
